static/img/kroki/b9173847c0e7e292a8779a179fa47577.svg

<?xml version="1.0" encoding="us-ascii" standalone="no"?><svg xmlns="http://www.w3.org/2000/svg" xmlns:xlink="http://www.w3.org/1999/xlink" contentStyleType="text/css" height="927px" preserveAspectRatio="none" style="width:672px;height:927px;" version="1.1" viewBox="0 0 672 927" width="672px" zoomAndPan="magnify"><defs/><g><!--class aws_resource--><g id="elem_aws_resource"><rect codeLine="23" fill="#3D176E" height="74.0859" id="aws_resource" rx="2.5" ry="2.5" style="stroke:#000D19;stroke-width:0.5;" width="155" x="153.5" y="438.76"/><ellipse cx="168.5" cy="458.6545" fill="#ADD1B2" rx="11" ry="11" style="stroke:#181818;stroke-width:1.0;"/><path d="M171.4688,464.2952 Q170.8906,464.592 170.25,464.7327 Q169.6094,464.8889 168.9063,464.8889 Q166.4063,464.8889 165.0781,463.2483 Q163.7656,461.592 163.7656,458.467 Q163.7656,455.342 165.0781,453.6858 Q166.4063,452.0295 168.9063,452.0295 Q169.6094,452.0295 170.25,452.1858 Q170.9063,452.342 171.4688,452.6389 L171.4688,455.3577 Q170.8438,454.7795 170.25,454.5139 Q169.6563,454.2327 169.0313,454.2327 Q167.6875,454.2327 167,455.3108 Q166.3125,456.3733 166.3125,458.467 Q166.3125,460.5608 167,461.6389 Q167.6875,462.7014 169.0313,462.7014 Q169.6563,462.7014 170.25,462.4358 Q170.8438,462.1545 171.4688,461.5764 L171.4688,464.2952 Z " fill="#000000"/><text fill="#D9B8FF" font-family="Helvetica" font-size="17" lengthAdjust="spacing" textLength="113" x="187.5" y="464.5398">aws_resource</text><line style="stroke:#000D19;stroke-width:0.5;" x1="154.5" x2="307.5" y1="478.5491" y2="478.5491"/><text fill="#D9B8FF" font-family="sans-serif" font-size="14" font-weight="bold" lengthAdjust="spacing" textLength="26" x="164.5" y="500.5442">arn</text><text fill="#D9B8FF" font-family="sans-serif" font-size="14" lengthAdjust="spacing" textLength="48" x="190.5" y="500.5442">: string</text></g><!--class aws_s3_account_settings--><g id="elem_aws_s3_account_settings"><rect codeLine="26" fill="#3D176E" height="74.0859" id="aws_s3_account_settings" rx="2.5" ry="2.5" style="stroke:#000D19;stroke-width:0.5;" width="658" x="7" y="633.85"/><ellipse cx="221.75" cy="653.7445" fill="#ADD1B2" rx="11" ry="11" style="stroke:#181818;stroke-width:1.0;"/><path d="M224.7188,659.3852 Q224.1406,659.682 223.5,659.8227 Q222.8594,659.9789 222.1563,659.9789 Q219.6563,659.9789 218.3281,658.3383 Q217.0156,656.682 217.0156,653.557 Q217.0156,650.432 218.3281,648.7758 Q219.6563,647.1195 222.1563,647.1195 Q222.8594,647.1195 223.5,647.2758 Q224.1563,647.432 224.7188,647.7289 L224.7188,650.4477 Q224.0938,649.8695 223.5,649.6039 Q222.9063,649.3227 222.2813,649.3227 Q220.9375,649.3227 220.25,650.4008 Q219.5625,651.4633 219.5625,653.557 Q219.5625,655.6508 220.25,656.7289 Q220.9375,657.7914 222.2813,657.7914 Q222.9063,657.7914 223.5,657.5258 Q224.0938,657.2445 224.7188,656.6664 L224.7188,659.3852 Z " fill="#000000"/><text fill="#D9B8FF" font-family="Helvetica" font-size="17" lengthAdjust="spacing" textLength="210" x="247.25" y="659.6298">aws_s3_account_settings</text><line style="stroke:#000D19;stroke-width:0.5;" x1="8" x2="664" y1="673.6391" y2="673.6391"/><text fill="#D9B8FF" font-family="sans-serif" font-size="14" font-weight="bold" lengthAdjust="spacing" textLength="331" x="18" y="695.6342">bucket_public_access_block_configuration</text><text fill="#D9B8FF" font-family="sans-serif" font-size="14" lengthAdjust="spacing" textLength="305" x="349" y="695.6342">: aws_s3_public_access_block_configuration</text></g><!--class aws_s3_public_access_block_configuration--><g id="elem_aws_s3_public_access_block_configuration"><rect codeLine="29" fill="#3D176E" height="152.9766" id="aws_s3_public_access_block_configuration" rx="2.5" ry="2.5" style="stroke:#000D19;stroke-width:0.5;" width="394" x="139" y="767.93"/><ellipse cx="154" cy="787.8245" fill="#ADD1B2" rx="11" ry="11" style="stroke:#181818;stroke-width:1.0;"/><path d="M156.9688,793.4652 Q156.3906,793.762 155.75,793.9027 Q155.1094,794.0589 154.4063,794.0589 Q151.9063,794.0589 150.5781,792.4183 Q149.2656,790.762 149.2656,787.637 Q149.2656,784.512 150.5781,782.8558 Q151.9063,781.1995 154.4063,781.1995 Q155.1094,781.1995 155.75,781.3558 Q156.4063,781.512 156.9688,781.8089 L156.9688,784.5277 Q156.3438,783.9495 155.75,783.6839 Q155.1563,783.4027 154.5313,783.4027 Q153.1875,783.4027 152.5,784.4808 Q151.8125,785.5433 151.8125,787.637 Q151.8125,789.7308 152.5,790.8089 Q153.1875,791.8714 154.5313,791.8714 Q155.1563,791.8714 155.75,791.6058 Q156.3438,791.3245 156.9688,790.7464 L156.9688,793.4652 Z " fill="#000000"/><text fill="#D9B8FF" font-family="Helvetica" font-size="17" lengthAdjust="spacing" textLength="352" x="173" y="793.7098">aws_s3_public_access_block_configuration</text><line style="stroke:#000D19;stroke-width:0.5;" x1="140" x2="532" y1="807.7191" y2="807.7191"/><text fill="#D9B8FF" font-family="sans-serif" font-size="14" font-weight="bold" lengthAdjust="spacing" textLength="134" x="150" y="829.7142">block_public_acls</text><text fill="#D9B8FF" font-family="sans-serif" font-size="14" lengthAdjust="spacing" textLength="65" x="284" y="829.7142">: boolean</text><text fill="#D9B8FF" font-family="sans-serif" font-size="14" font-weight="bold" lengthAdjust="spacing" textLength="149" x="150" y="856.0111">block_public_policy</text><text fill="#D9B8FF" font-family="sans-serif" font-size="14" lengthAdjust="spacing" textLength="65" x="299" y="856.0111">: boolean</text><text fill="#D9B8FF" font-family="sans-serif" font-size="14" font-weight="bold" lengthAdjust="spacing" textLength="143" x="150" y="882.3079">ignore_public_acls</text><text fill="#D9B8FF" font-family="sans-serif" font-size="14" lengthAdjust="spacing" textLength="65" x="293" y="882.3079">: boolean</text><text fill="#D9B8FF" font-family="sans-serif" font-size="14" font-weight="bold" lengthAdjust="spacing" textLength="182" x="150" y="908.6048">restrict_public_buckets</text><text fill="#D9B8FF" font-family="sans-serif" font-size="14" lengthAdjust="spacing" textLength="65" x="332" y="908.6048">: boolean</text></g><!--class phantom_resource--><g id="elem_phantom_resource"><rect codeLine="35" fill="#3D176E" height="39.7891" id="phantom_resource" rx="2.5" ry="2.5" style="stroke:#000D19;stroke-width:0.5;" width="198" x="344" y="455.91"/><ellipse cx="359" cy="475.8045" fill="#ADD1B2" rx="11" ry="11" style="stroke:#181818;stroke-width:1.0;"/><path d="M361.9688,481.4452 Q361.3906,481.742 360.75,481.8827 Q360.1094,482.0389 359.4063,482.0389 Q356.9063,482.0389 355.5781,480.3983 Q354.2656,478.742 354.2656,475.617 Q354.2656,472.492 355.5781,470.8358 Q356.9063,469.1795 359.4063,469.1795 Q360.1094,469.1795 360.75,469.3358 Q361.4063,469.492 361.9688,469.7889 L361.9688,472.5077 Q361.3438,471.9295 360.75,471.6639 Q360.1563,471.3827 359.5313,471.3827 Q358.1875,471.3827 357.5,472.4608 Q356.8125,473.5233 356.8125,475.617 Q356.8125,477.7108 357.5,478.7889 Q358.1875,479.8514 359.5313,479.8514 Q360.1563,479.8514 360.75,479.5858 Q361.3438,479.3045 361.9688,478.7264 L361.9688,481.4452 Z " fill="#000000"/><text fill="#D9B8FF" font-family="Helvetica" font-size="17" lengthAdjust="spacing" textLength="156" x="378" y="481.6898">phantom_resource</text></g><!--class resource--><g id="elem_resource"><rect codeLine="38" fill="#3D176E" height="310.7578" id="resource" rx="2.5" ry="2.5" style="stroke:#000D19;stroke-width:0.5;" width="227" x="222.5" y="7"/><ellipse cx="291.25" cy="26.8945" fill="#ADD1B2" rx="11" ry="11" style="stroke:#181818;stroke-width:1.0;"/><path d="M294.2188,32.5352 Q293.6406,32.832 293,32.9727 Q292.3594,33.1289 291.6563,33.1289 Q289.1563,33.1289 287.8281,31.4883 Q286.5156,29.832 286.5156,26.707 Q286.5156,23.582 287.8281,21.9258 Q289.1563,20.2695 291.6563,20.2695 Q292.3594,20.2695 293,20.4258 Q293.6563,20.582 294.2188,20.8789 L294.2188,23.5977 Q293.5938,23.0195 293,22.7539 Q292.4063,22.4727 291.7813,22.4727 Q290.4375,22.4727 289.75,23.5508 Q289.0625,24.6133 289.0625,26.707 Q289.0625,28.8008 289.75,29.8789 Q290.4375,30.9414 291.7813,30.9414 Q292.4063,30.9414 293,30.6758 Q293.5938,30.3945 294.2188,29.8164 L294.2188,32.5352 Z " fill="#000000"/><text fill="#D9B8FF" font-family="Helvetica" font-size="17" lengthAdjust="spacing" textLength="71" x="316.75" y="32.7798">resource</text><line style="stroke:#000D19;stroke-width:0.5;" x1="223.5" x2="448.5" y1="46.7891" y2="46.7891"/><text fill="#D9B8FF" font-family="sans-serif" font-size="14" font-weight="bold" lengthAdjust="spacing" textLength="29" x="233.5" y="68.7842">age</text><text fill="#D9B8FF" font-family="sans-serif" font-size="14" lengthAdjust="spacing" textLength="66" x="262.5" y="68.7842">: duration</text><text fill="#D9B8FF" font-family="sans-serif" font-size="14" font-weight="bold" lengthAdjust="spacing" textLength="43" x="233.5" y="95.0811">atime</text><text fill="#D9B8FF" font-family="sans-serif" font-size="14" lengthAdjust="spacing" textLength="70" x="276.5" y="95.0811">: datetime</text><text fill="#D9B8FF" font-family="sans-serif" font-size="14" font-weight="bold" lengthAdjust="spacing" textLength="43" x="233.5" y="121.3779">ctime</text><text fill="#D9B8FF" font-family="sans-serif" font-size="14" lengthAdjust="spacing" textLength="70" x="276.5" y="121.3779">: datetime</text><text fill="#D9B8FF" font-family="sans-serif" font-size="14" font-weight="bold" lengthAdjust="spacing" textLength="14" x="233.5" y="147.6748">id</text><text fill="#D9B8FF" font-family="sans-serif" font-size="14" lengthAdjust="spacing" textLength="48" x="247.5" y="147.6748">: string</text><text fill="#D9B8FF" font-family="sans-serif" font-size="14" font-weight="bold" lengthAdjust="spacing" textLength="33" x="233.5" y="173.9717">kind</text><text fill="#D9B8FF" font-family="sans-serif" font-size="14" lengthAdjust="spacing" textLength="48" x="266.5" y="173.9717">: string</text><text fill="#D9B8FF" font-family="sans-serif" font-size="14" font-weight="bold" lengthAdjust="spacing" textLength="90" x="233.5" y="200.2686">last_access</text><text fill="#D9B8FF" font-family="sans-serif" font-size="14" lengthAdjust="spacing" textLength="66" x="323.5" y="200.2686">: duration</text><text fill="#D9B8FF" font-family="sans-serif" font-size="14" font-weight="bold" lengthAdjust="spacing" textLength="90" x="233.5" y="226.5654">last_update</text><text fill="#D9B8FF" font-family="sans-serif" font-size="14" lengthAdjust="spacing" textLength="66" x="323.5" y="226.5654">: duration</text><text fill="#D9B8FF" font-family="sans-serif" font-size="14" font-weight="bold" lengthAdjust="spacing" textLength="48" x="233.5" y="252.8623">mtime</text><text fill="#D9B8FF" font-family="sans-serif" font-size="14" lengthAdjust="spacing" textLength="70" x="281.5" y="252.8623">: datetime</text><text fill="#D9B8FF" font-family="sans-serif" font-size="14" font-weight="bold" lengthAdjust="spacing" textLength="43" x="233.5" y="279.1592">name</text><text fill="#D9B8FF" font-family="sans-serif" font-size="14" lengthAdjust="spacing" textLength="48" x="276.5" y="279.1592">: string</text><text fill="#D9B8FF" font-family="sans-serif" font-size="14" font-weight="bold" lengthAdjust="spacing" textLength="34" x="233.5" y="305.4561">tags</text><text fill="#D9B8FF" font-family="sans-serif" font-size="14" lengthAdjust="spacing" textLength="171" x="267.5" y="305.4561">: dictionary[string, string]</text></g><!--reverse link resource to aws_resource--><g id="link_resource_aws_resource"><path codeLine="50" d="M278.0566,335.2357 C262.8666,380.2657 253.41,408.35 243.23,438.52 " fill="none" id="resource-backto-aws_resource" style="stroke:#FFAF37;stroke-width:2.0;"/><polygon fill="none" points="283.81,318.18,272.3713,333.3179,283.7418,337.1535,283.81,318.18" style="stroke:#FFAF37;stroke-width:2.0;"/></g><!--reverse link aws_resource to aws_s3_account_settings--><g id="link_aws_resource_aws_s3_account_settings"><path codeLine="51" d="M259.3484,528.9335 C278.0584,563.3435 297.42,598.94 316.16,633.41 " fill="none" id="aws_resource-backto-aws_s3_account_settings" style="stroke:#FFAF37;stroke-width:2.0;"/><polygon fill="none" points="250.75,513.12,254.0772,531.7997,264.6196,526.0674,250.75,513.12" style="stroke:#FFAF37;stroke-width:2.0;"/></g><!--link aws_s3_account_settings to aws_s3_public_access_block_configuration--><g id="link_aws_s3_account_settings_aws_s3_public_access_block_configuration"><path codeLine="52" d="M336,708.27 C336,725.58 336,740.96 336,761.56 " fill="none" id="aws_s3_account_settings-to-aws_s3_public_access_block_configuration" style="stroke:#FFAF37;stroke-width:2.0;"/><polygon fill="#FFAF37" points="336,767.56,340,758.56,336,762.56,332,758.56,336,767.56" style="stroke:#FFAF37;stroke-width:2.0;"/></g><!--reverse link phantom_resource to aws_s3_account_settings--><g id="link_phantom_resource_aws_s3_account_settings"><path codeLine="53" d="M423.6256,511.7643 C405.9156,543.7243 378.86,592.55 356.23,633.38 " fill="none" id="phantom_resource-backto-aws_s3_account_settings" style="stroke:#FFAF37;stroke-width:2.0;"/><polygon fill="none" points="432.35,496.02,418.3775,508.8562,428.8737,514.6725,432.35,496.02" style="stroke:#FFAF37;stroke-width:2.0;"/></g><!--reverse link resource to phantom_resource--><g id="link_resource_phantom_resource"><path codeLine="54" d="M395.037,335.2039 C413.807,389.8539 426.79,427.63 436.42,455.65 " fill="none" id="resource-backto-phantom_resource" style="stroke:#FFAF37;stroke-width:2.0;"/><polygon fill="none" points="389.19,318.18,389.3624,337.1529,400.7116,333.2549,389.19,318.18" style="stroke:#FFAF37;stroke-width:2.0;"/></g><!--SRC=[ZPBRYjim48Rl_HI2lJCr91lQR4efR0EblLbAjtUbcB4qTeHjoKZZXlJmxfNjn9Nb7FR6cFc_-UUWsKc13Ek63gp6EaDZ8rjArO21cZqQe_TRNMd3xl8SyjKw53zgHJU19wYHVSBg9vBa41BVTfAN2grbzvxq0NXP6DqgCTYJ0MMTX8eyQbk1jOz4HcOjeTUCs6GFUHwIeUdTIYpNRt26QIFG7975OY6Mcn2vMUhgt2FnB7yXM_fBUzA4ipPd9NhgQfSTuJKv6_IaN-pn2mWXLS5UUx6lGqz6ePd4dtSWzBwZSwYiNyOI6jHqQ70xcmet3o9VduK_Nu8ZtgsEmTwc1grk3KVsEufZC2gEtpe7uxg8_dgONQN0kNEYr2AHassVaRMyH4gRDgiaxn1tWMbMQLwcNAjS5gq1ahgtFVhSPCF2DnE6Jlhuo5QsAvbfNI6eK6wq-nwcW2oKDdZPm2tAhOMFimwJJw1JtyqE5EdQt-seJVTTO9SlJeEx2CbwY05Xz-zY_4nC2k-XujWz_ZJWQj5nOq65NccRpYjGwZDr50oXqPYW61pTAbmQcCFtGNjrP7wuKSSXt_r9acHoPz7awFxhPmuikdHuIVB-vSSqUuphDGCip8x-0G00]--></g></svg>

<svg xmlns="http://www.w3.org/2000/svg" width="672" height="927" viewBox="0 0 672 927"><rect width="155" height="74.086" x="153.5" y="438.76" fill="#3D176E" rx="2.5" ry="2.5" style="stroke:#000d19;stroke-width:.5"/><circle cx="168.5" cy="458.654" r="11" fill="#ADD1B2" style="stroke:#181818;stroke-width:1"/><path d="M171.469 464.295q-.578.297-1.219.438-.64.156-1.344.156-2.5 0-3.828-1.64-1.312-1.657-1.312-4.782t1.312-4.781q1.328-1.656 3.828-1.656.703 0 1.344.156.656.156 1.219.453v2.719q-.625-.579-1.219-.844-.594-.281-1.219-.281-1.344 0-2.031 1.078-.687 1.062-.687 3.156t.687 3.172q.688 1.062 2.031 1.062.625 0 1.219-.265.594-.281 1.219-.86z"/><text x="187.5" y="464.54" fill="#D9B8FF" font-family="Helvetica" font-size="17" textLength="113">aws_resource</text><path d="M154.5 478.549h153" style="stroke:#000d19;stroke-width:.5"/><text x="164.5" y="500.544" fill="#D9B8FF" font-family="sans-serif" font-size="14" font-weight="bold" textLength="26">arn</text><text x="190.5" y="500.544" fill="#D9B8FF" font-family="sans-serif" font-size="14" textLength="48">: string</text><rect width="658" height="74.086" x="7" y="633.85" fill="#3D176E" rx="2.5" ry="2.5" style="stroke:#000d19;stroke-width:.5"/><circle cx="221.75" cy="653.745" r="11" fill="#ADD1B2" style="stroke:#181818;stroke-width:1"/><path d="M224.719 659.385q-.578.297-1.219.438-.64.156-1.344.156-2.5 0-3.828-1.64-1.312-1.657-1.312-4.782t1.312-4.781q1.328-1.656 3.828-1.656.703 0 1.344.156.656.156 1.219.453v2.719q-.625-.578-1.219-.844-.594-.281-1.219-.281-1.344 0-2.031 1.078-.687 1.062-.687 3.156t.687 3.172q.688 1.062 2.031 1.062.625 0 1.219-.265.594-.281 1.219-.86z"/><text x="247.25" y="659.63" fill="#D9B8FF" font-family="Helvetica" font-size="17" textLength="210">aws_s3_account_settings</text><path d="M8 673.639h656" style="stroke:#000d19;stroke-width:.5"/><text x="18" y="695.634" fill="#D9B8FF" font-family="sans-serif" font-size="14" font-weight="bold" textLength="331">bucket_public_access_block_configuration</text><text x="349" y="695.634" fill="#D9B8FF" font-family="sans-serif" font-size="14" textLength="305">: aws_s3_public_access_block_configuration</text><rect width="394" height="152.977" x="139" y="767.93" fill="#3D176E" rx="2.5" ry="2.5" style="stroke:#000d19;stroke-width:.5"/><circle cx="154" cy="787.824" r="11" fill="#ADD1B2" style="stroke:#181818;stroke-width:1"/><path d="M156.969 793.465q-.578.297-1.219.438-.64.156-1.344.156-2.5 0-3.828-1.64-1.312-1.657-1.312-4.782t1.312-4.781q1.328-1.657 3.828-1.657.703 0 1.344.157.656.156 1.219.453v2.719q-.625-.579-1.219-.844-.594-.281-1.219-.281-1.344 0-2.031 1.078-.687 1.062-.687 3.156t.687 3.172q.688 1.062 2.031 1.062.625 0 1.219-.265.594-.282 1.219-.86z"/><text x="173" y="793.71" fill="#D9B8FF" font-family="Helvetica" font-size="17" textLength="352">aws_s3_public_access_block_configuration</text><path d="M140 807.719h392" style="stroke:#000d19;stroke-width:.5"/><text x="150" y="829.714" fill="#D9B8FF" font-family="sans-serif" font-size="14" font-weight="bold" textLength="134">block_public_acls</text><text x="284" y="829.714" fill="#D9B8FF" font-family="sans-serif" font-size="14" textLength="65">: boolean</text><text x="150" y="856.011" fill="#D9B8FF" font-family="sans-serif" font-size="14" font-weight="bold" textLength="149">block_public_policy</text><text x="299" y="856.011" fill="#D9B8FF" font-family="sans-serif" font-size="14" textLength="65">: boolean</text><text x="150" y="882.308" fill="#D9B8FF" font-family="sans-serif" font-size="14" font-weight="bold" textLength="143">ignore_public_acls</text><text x="293" y="882.308" fill="#D9B8FF" font-family="sans-serif" font-size="14" textLength="65">: boolean</text><text x="150" y="908.605" fill="#D9B8FF" font-family="sans-serif" font-size="14" font-weight="bold" textLength="182">restrict_public_buckets</text><text x="332" y="908.605" fill="#D9B8FF" font-family="sans-serif" font-size="14" textLength="65">: boolean</text><rect width="198" height="39.789" x="344" y="455.91" fill="#3D176E" rx="2.5" ry="2.5" style="stroke:#000d19;stroke-width:.5"/><circle cx="359" cy="475.805" r="11" fill="#ADD1B2" style="stroke:#181818;stroke-width:1"/><path d="M361.969 481.445q-.578.297-1.219.438-.64.156-1.344.156-2.5 0-3.828-1.64-1.312-1.657-1.312-4.782t1.312-4.781q1.328-1.656 3.828-1.656.703 0 1.344.156.656.156 1.219.453v2.719q-.625-.578-1.219-.844-.594-.281-1.219-.281-1.344 0-2.031 1.078-.687 1.062-.687 3.156t.687 3.172q.688 1.062 2.031 1.062.625 0 1.219-.265.594-.281 1.219-.86z"/><text x="378" y="481.69" fill="#D9B8FF" font-family="Helvetica" font-size="17" textLength="156">phantom_resource</text><rect width="227" height="310.758" x="222.5" y="7" fill="#3D176E" rx="2.5" ry="2.5" style="stroke:#000d19;stroke-width:.5"/><circle cx="291.25" cy="26.895" r="11" fill="#ADD1B2" style="stroke:#181818;stroke-width:1"/><path d="M294.219 32.535q-.578.297-1.219.438-.64.156-1.344.156-2.5 0-3.828-1.64-1.312-1.657-1.312-4.782t1.312-4.781q1.328-1.656 3.828-1.656.703 0 1.344.156.656.156 1.219.453v2.719q-.625-.578-1.219-.844-.594-.281-1.219-.281-1.344 0-2.031 1.078-.687 1.062-.687 3.156t.687 3.172q.688 1.062 2.031 1.062.625 0 1.219-.265.594-.281 1.219-.86z"/><text x="316.75" y="32.78" fill="#D9B8FF" font-family="Helvetica" font-size="17" textLength="71">resource</text><path d="M223.5 46.789h225" style="stroke:#000d19;stroke-width:.5"/><text x="233.5" y="68.784" fill="#D9B8FF" font-family="sans-serif" font-size="14" font-weight="bold" textLength="29">age</text><text x="262.5" y="68.784" fill="#D9B8FF" font-family="sans-serif" font-size="14" textLength="66">: duration</text><text x="233.5" y="95.081" fill="#D9B8FF" font-family="sans-serif" font-size="14" font-weight="bold" textLength="43">atime</text><text x="276.5" y="95.081" fill="#D9B8FF" font-family="sans-serif" font-size="14" textLength="70">: datetime</text><text x="233.5" y="121.378" fill="#D9B8FF" font-family="sans-serif" font-size="14" font-weight="bold" textLength="43">ctime</text><text x="276.5" y="121.378" fill="#D9B8FF" font-family="sans-serif" font-size="14" textLength="70">: datetime</text><text x="233.5" y="147.675" fill="#D9B8FF" font-family="sans-serif" font-size="14" font-weight="bold" textLength="14">id</text><text x="247.5" y="147.675" fill="#D9B8FF" font-family="sans-serif" font-size="14" textLength="48">: string</text><text x="233.5" y="173.972" fill="#D9B8FF" font-family="sans-serif" font-size="14" font-weight="bold" textLength="33">kind</text><text x="266.5" y="173.972" fill="#D9B8FF" font-family="sans-serif" font-size="14" textLength="48">: string</text><text x="233.5" y="200.269" fill="#D9B8FF" font-family="sans-serif" font-size="14" font-weight="bold" textLength="90">last_access</text><text x="323.5" y="200.269" fill="#D9B8FF" font-family="sans-serif" font-size="14" textLength="66">: duration</text><text x="233.5" y="226.565" fill="#D9B8FF" font-family="sans-serif" font-size="14" font-weight="bold" textLength="90">last_update</text><text x="323.5" y="226.565" fill="#D9B8FF" font-family="sans-serif" font-size="14" textLength="66">: duration</text><text x="233.5" y="252.862" fill="#D9B8FF" font-family="sans-serif" font-size="14" font-weight="bold" textLength="48">mtime</text><text x="281.5" y="252.862" fill="#D9B8FF" font-family="sans-serif" font-size="14" textLength="70">: datetime</text><text x="233.5" y="279.159" fill="#D9B8FF" font-family="sans-serif" font-size="14" font-weight="bold" textLength="43">name</text><text x="276.5" y="279.159" fill="#D9B8FF" font-family="sans-serif" font-size="14" textLength="48">: string</text><text x="233.5" y="305.456" fill="#D9B8FF" font-family="sans-serif" font-size="14" font-weight="bold" textLength="34">tags</text><text x="267.5" y="305.456" fill="#D9B8FF" font-family="sans-serif" font-size="14" textLength="171">: dictionary[string, string]</text><g fill="none"><path d="M278.057 335.236c-15.19 45.03-24.647 73.114-34.827 103.284" style="stroke:#ffaf37;stroke-width:2"/><path d="m283.81 318.18-11.439 15.138 11.37 3.836z" style="stroke:#ffaf37;stroke-width:2"/></g><path fill="none" d="M259.348 528.934c18.71 34.41 38.072 70.006 56.812 104.476m-65.41-120.29 3.327 18.68 10.543-5.733zM336 708.27v53.29" style="stroke:#ffaf37;stroke-width:2"/><path fill="#FFAF37" d="m336 767.56 4-9-4 4-4-4z" style="stroke:#ffaf37;stroke-width:2"/><g fill="none"><path d="M423.626 511.764c-17.71 31.96-44.766 80.786-67.396 121.616" style="stroke:#ffaf37;stroke-width:2"/><path d="m432.35 496.02-13.973 12.836 10.497 5.817z" style="stroke:#ffaf37;stroke-width:2"/></g><g fill="none"><path d="M395.037 335.204c18.77 54.65 31.753 92.426 41.383 120.446" style="stroke:#ffaf37;stroke-width:2"/><path d="m389.19 318.18.172 18.973 11.35-3.898z" style="stroke:#ffaf37;stroke-width:2"/></g></svg>
